assets/bitcoin-color/BitcoinColor4.svg

<svg xmlns="http://www.w3.org/2000/svg" viewBox="0 0 73 62"><g fill="#000" fill-rule="evenodd"><path d="M2.616 34.028c.462 0 .673-.244.673-.77v-.503c0-.631-.251-.842-.794-.842h-.551v2.115h.672zm-.186-2.691c.503 0 .761-.161.761-.753v-.332c0-.502-.17-.746-.623-.746h-.624v1.831h.486zm.154-2.406c.883 0 1.231.421 1.231 1.256v.267c0 .6-.169.972-.664 1.126.551.155.762.592.762 1.216v.478c0 .851-.413 1.329-1.297 1.329H1.312v-5.672h1.272zM5.702 34.603h.632v-5.672h-.632zM9.015 34.603v-5.097H7.97v-.575h2.714v.575H9.639v5.097h-.624M14.831 30.3v.511h-.6v-.543c0-.511-.202-.818-.664-.818-.454 0-.664.307-.664.818v2.998c0 .51.21.818.664.818.462 0 .664-.308.664-.818v-.738h.6v.705c0 .859-.405 1.426-1.28 1.426-.867 0-1.272-.567-1.272-1.426V30.3c0-.858.405-1.426 1.272-1.426.875 0 1.28.568 1.28 1.426M17.195 33.266c0 .518.219.818.673.818.462 0 .672-.3.672-.818v-2.998c0-.511-.21-.818-.672-.818-.454 0-.673.307-.673.818v2.998zm-.624-2.966c0-.867.43-1.426 1.297-1.426.875 0 1.304.559 1.304 1.426v2.933c0 .859-.429 1.426-1.304 1.426-.867 0-1.297-.567-1.297-1.426V30.3zM20.986 34.603h.632v-5.672h-.632zM24.04 34.603h-.568v-5.672h.802l1.313 4.1v-4.1h.559v5.672h-.656l-1.45-4.586v4.586M48.689 30.3v.511h-.6v-.543c0-.511-.202-.818-.664-.818-.454 0-.664.307-.664.818v2.998c0 .51.21.818.664.818.462 0 .664-.308.664-.818v-.738h.6v.705c0 .859-.405 1.426-1.28 1.426-.867 0-1.272-.567-1.272-1.426V30.3c0-.858.405-1.426 1.272-1.426.875 0 1.28.568 1.28 1.426M51.053 33.266c0 .518.219.818.673.818.462 0 .672-.3.672-.818v-2.998c0-.511-.21-.818-.672-.818-.454 0-.673.307-.673.818v2.998zm-.624-2.966c0-.867.43-1.426 1.297-1.426.875 0 1.304.559 1.304 1.426v2.933c0 .859-.429 1.426-1.304 1.426-.867 0-1.297-.567-1.297-1.426V30.3zM57.347 30.3v.511h-.599v-.543c0-.511-.203-.818-.664-.818-.455 0-.665.307-.665.818v2.998c0 .51.21.818.665.818.461 0 .664-.308.664-.818v-.738h.599v.705c0 .859-.405 1.426-1.28 1.426-.867 0-1.272-.567-1.272-1.426V30.3c0-.858.405-1.426 1.272-1.426.875 0 1.28.568 1.28 1.426M59.955 34.603v-5.097H58.91v-.575h2.714v.575h-1.045v5.097h-.624M63.681 32.917h1.263l-.64-3.273-.623 3.273zm-.081.543l-.219 1.143h-.584l1.086-5.672h.916l1.085 5.672h-.632l-.218-1.143H63.6zM67.592 34.603h.632v-5.672h-.632zM70.087 34.603v-5.672h.632v5.097h1.62v.575h-2.252M23.653 54.951v2.137h4.273c.587 0 1.068-.481 1.068-1.068 0-.588-.481-1.069-1.068-1.069h-4.273zm0-1.068h4.273c.587 0 1.068-.48 1.068-1.068 0-.587-.481-1.068-1.068-1.068h-4.273v2.136zm-1.068 4.273v-7.477h5.341c1.121 0 2.136.951 2.136 2.136a2.06 2.06 0 01-.726 1.602c.48.427.726.962.726 1.603 0 1.153-.94 2.104-2.136 2.136h-5.341zM34.761 51.747c-.587 0-1.068.481-1.068 1.068v2.136h5.341v-2.136c0-.587-.481-1.068-1.069-1.068h-3.204zm5.341 6.409h-1.068V56.02h-5.341v2.136h-1.068v-5.341c0-1.132.94-2.136 2.136-2.136h3.204c1.143 0 2.105.951 2.137 2.136v5.341zM49.18 52.815c0-.587-.481-1.068-1.068-1.068h-4.273v3.204h4.273c.587 0 1.068-.48 1.068-1.068v-1.068zm.31 5.341l-2.136-2.136h-3.515v2.136h-1.067v-7.477h5.34c1.121 0 2.136.951 2.136 2.136v1.068c0 .908-.598 1.731-1.484 2.03l1.484 1.484v.759h-.758zM51.406 6.336a.694.694 0 01-.129.527.705.705 0 01-.464.282l-4.004.618-.216-1.405 4.004-.616a.712.712 0 01.809.594zM46.552 8.56l4.375-.673a1.457 1.457 0 001.22-1.665 1.466 1.466 0 00-1.664-1.221l-4.375.673a.374.374 0 00-.313.426l.329 2.146a.374.374 0 00.428.314zM47.463 12.021l-.216-1.404 5.022-.771a.71.71 0 01.218 1.403l-5.024.772zm6.355-1.696a1.458 1.458 0 00-1.664-1.22l-5.391.827a.377.377 0 00-.314.429l.329 2.146a.38.38 0 00.428.313l5.392-.829a1.463 1.463 0 001.22-1.666z"/><path d="M46.027 19.529l-7.229 9.522c-.043.057-.08.118-.122.175a.374.374 0 00-.119.092c-.076.087-.171.156-.26.233a2.98 2.98 0 01-1.932.693c-.797 0-1.522-.297-2.031-.786-.058-.055-.118-.108-.17-.168-.056-.079-.107-.161-.166-.238l-7.228-9.523h19.257zm-2.62-6.124l1.689-.26a.374.374 0 00.313-.428l-.987-6.404A.373.373 0 0043.994 6l-1.686.258-.211-1.371 1.687-.259a.378.378 0 00.314-.429l-.296-1.921 1.371-.212.296 1.922a.374.374 0 00.427.313l3.178-.489a.376.376 0 00.314-.428l-.296-1.921 1.372-.21.317 2.057c.026.163.155.29.319.314a2.865 2.865 0 012.421 2.387c.076.489.019.996-.165 1.465a.374.374 0 00.194.478 2.843 2.843 0 011.639 2.159 2.833 2.833 0 01-.518 2.119 2.832 2.832 0 01-1.864 1.133l-.099.016a.374.374 0 00-.312.426l.294 1.919-1.371.211-.296-1.919a.37.37 0 00-.148-.246.38.38 0 00-.279-.069l-.989.153h-6.13l-.07-.451zm-20.373 1.201h26.73l-3.202 4.217a.373.373 0 00-.169-.045H26.201l-3.167-4.172zm7.404 29.598l3.848-1.171a2 2 0 001.426-1.925v-6.963a8.452 8.452 0 00-.732-3.419c.433.163.897.269 1.385.269.517 0 1.008-.104 1.456-.283a8.465 8.465 0 00-.737 3.433v6.963c0 .892.573 1.665 1.426 1.925l3.848 1.171h-11.92zm14.549.016l-6.258-1.904a1.255 1.255 0 01-.895-1.208v-6.963c0-1.665.555-3.313 1.562-4.641l11.018-14.515.221 1.434a.378.378 0 00.149.245.38.38 0 00.278.068l2.113-.325a.375.375 0 00.313-.428l-.296-1.93a3.564 3.564 0 002.083-1.378A3.575 3.575 0 0055.931 10a3.589 3.589 0 00-1.767-2.573 3.569 3.569 0 00.098-1.53 3.621 3.621 0 00-2.781-2.966L51.147.767a.374.374 0 00-.427-.313l-2.113.325a.376.376 0 00-.313.428l.295 1.921-2.436.375-.296-1.923a.374.374 0 00-.427-.312l-2.114.325a.376.376 0 00-.313.428l.296 1.922-1.688.259a.38.38 0 00-.245.148.382.382 0 00-.068.28l.325 2.113a.375.375 0 00.428.313l1.686-.258.873 5.663-1.687.26a.376.376 0 00-.314.428l.109.707H22.279a.376.376 0 00-.298.602L33.4 29.505c.02.026.034.056.053.082.013.03.023.061.044.088.01.013.024.022.033.034a7.71 7.71 0 011.432 4.436v6.963c0 .56-.359 1.045-.895 1.208L27.81 44.22a.377.377 0 00-.262.415.374.374 0 00.371.319h16.959a.375.375 0 00.109-.734z"/><path d="M36.502 23.008l.018-.001c.009.038.005.077.012.115.007.051.014.101.015.15.003.078-.005.153-.019.228-.007.045-.012.091-.025.133a.97.97 0 01-.101.213c-.019.032-.032.067-.055.097a.84.84 0 01-.257.225.854.854 0 01-.317.089c-.032.003-.065-.004-.098-.005a.96.96 0 01-.237-.029c-.036-.009-.069-.025-.103-.037a1.093 1.093 0 01-.315-.184c-.031-.024-.064-.04-.091-.068.003-.004.007-.007.009-.012.177-.303.421-.545.719-.707.255-.136.568-.198.845-.207zm.779.605c.024-.145.034-.294.023-.447l.001-.01c.53.206.989.614 1.282 1.159a2.51 2.51 0 01.251 1.774c-.137.566-.475 1.02-.953 1.276a1.826 1.826 0 01-.875.219c-.818 0-1.624-.517-2.055-1.318a2.544 2.544 0 01-.285-1.575c.026.018.057.026.084.043.081.05.164.091.251.128.05.021.099.043.149.059.103.033.206.053.313.068.041.006.083.013.125.016.032.002.063.013.096.013.089 0 .175-.018.261-.032.027-.004.053-.004.079-.011a1.53 1.53 0 00.416-.147 1.6 1.6 0 00.355-.268l.072-.074c.097-.108.183-.223.248-.352.004-.006.006-.015.009-.021a1.818 1.818 0 00.153-.5zm-.271 4.721c.436 0 .85-.104 1.23-.307.669-.359 1.14-.986 1.327-1.764.183-.761.07-1.58-.319-2.303-.51-.946-1.413-1.575-2.416-1.686a2.615 2.615 0 00-1.53.281 2.612 2.612 0 00-1.162 1.284h-.001c-.375.865-.317 1.905.156 2.783.567 1.056 1.608 1.711 2.715 1.712zM26.015 36.758H.806a.375.375 0 000 .751h25.209a.375.375 0 000-.751M71.781 36.758H46.572a.375.375 0 000 .751h25.209a.375.375 0 000-.751M18.423 49.918l-6.651-3.322a.373.373 0 00-.502.168.372.372 0 00.168.502l6.65 3.323a.373.373 0 00.503-.168.375.375 0 00-.168-.503M18.088 57.38l-6.65 3.322a.373.373 0 00-.168.502.372.372 0 00.502.168l6.651-3.321a.375.375 0 00-.335-.671M16.071 53.985a.375.375 0 00-.375-.375H7.515a.375.375 0 000 .75h8.181a.375.375 0 00.375-.375M60.892 60.703l-6.651-3.322a.375.375 0 10-.335.671l6.651 3.322a.38.38 0 00.503-.168.375.375 0 00-.168-.503M54.074 50.629a.382.382 0 00.167-.039l6.651-3.322a.376.376 0 00-.335-.672l-6.651 3.323a.375.375 0 00.168.71M64.815 53.61h-8.181a.375.375 0 000 .75h8.181a.374.374 0 100-.75"/></g></svg>

<?xml version="1.0" encoding="UTF-8"?>
<svg width="73px" height="62px" viewBox="0 0 73 62" version="1.1" xmlns="http://www.w3.org/2000/svg" xmlns:xlink="http://www.w3.org/1999/xlink">
    <!-- Generator: Sketch 49 (51002) - http://www.bohemiancoding.com/sketch -->
    <title>bitcoin-grey-4</title>
    <desc>Created with Sketch.</desc>
    <defs></defs>
    <g id="Page-1" stroke="none" stroke-width="1" fill="none" fill-rule="evenodd">
        <g id="bitcoin-grey-4" fill="#000000">
            <path d="M2.616,34.028 C3.078,34.028 3.289,33.784 3.289,33.258 L3.289,32.755 C3.289,32.124 3.038,31.913 2.495,31.913 L1.944,31.913 L1.944,34.028 L2.616,34.028 Z M2.43,31.337 C2.933,31.337 3.191,31.176 3.191,30.584 L3.191,30.252 C3.191,29.75 3.021,29.506 2.568,29.506 L1.944,29.506 L1.944,31.337 L2.43,31.337 Z M2.584,28.931 C3.467,28.931 3.815,29.352 3.815,30.187 L3.815,30.454 C3.815,31.054 3.646,31.426 3.151,31.58 C3.702,31.735 3.913,32.172 3.913,32.796 L3.913,33.274 C3.913,34.125 3.5,34.603 2.616,34.603 L1.312,34.603 L1.312,28.931 L2.584,28.931 Z" id="Fill-1"></path>
            <polygon id="Fill-2" points="5.702 34.603 6.334 34.603 6.334 28.931 5.702 28.931"></polygon>
            <polyline id="Fill-3" points="9.015 34.603 9.015 29.506 7.97 29.506 7.97 28.931 10.684 28.931 10.684 29.506 9.639 29.506 9.639 34.603 9.015 34.603"></polyline>
            <path d="M14.831,30.3 L14.831,30.811 L14.231,30.811 L14.231,30.268 C14.231,29.757 14.029,29.45 13.567,29.45 C13.113,29.45 12.903,29.757 12.903,30.268 L12.903,33.266 C12.903,33.776 13.113,34.084 13.567,34.084 C14.029,34.084 14.231,33.776 14.231,33.266 L14.231,32.528 L14.831,32.528 L14.831,33.233 C14.831,34.092 14.426,34.659 13.551,34.659 C12.684,34.659 12.279,34.092 12.279,33.233 L12.279,30.3 C12.279,29.442 12.684,28.874 13.551,28.874 C14.426,28.874 14.831,29.442 14.831,30.3" id="Fill-4"></path>
            <path d="M17.195,33.266 C17.195,33.784 17.414,34.084 17.868,34.084 C18.33,34.084 18.54,33.784 18.54,33.266 L18.54,30.268 C18.54,29.757 18.33,29.45 17.868,29.45 C17.414,29.45 17.195,29.757 17.195,30.268 L17.195,33.266 Z M16.571,30.3 C16.571,29.433 17.001,28.874 17.868,28.874 C18.743,28.874 19.172,29.433 19.172,30.3 L19.172,33.233 C19.172,34.092 18.743,34.659 17.868,34.659 C17.001,34.659 16.571,34.092 16.571,33.233 L16.571,30.3 Z" id="Fill-5"></path>
            <polygon id="Fill-6" points="20.986 34.603 21.618 34.603 21.618 28.931 20.986 28.931"></polygon>
            <polyline id="Fill-7" points="24.04 34.603 23.472 34.603 23.472 28.931 24.274 28.931 25.587 33.031 25.587 28.931 26.146 28.931 26.146 34.603 25.49 34.603 24.04 30.017 24.04 34.603"></polyline>
            <path d="M48.689,30.3 L48.689,30.811 L48.089,30.811 L48.089,30.268 C48.089,29.757 47.887,29.45 47.425,29.45 C46.971,29.45 46.761,29.757 46.761,30.268 L46.761,33.266 C46.761,33.776 46.971,34.084 47.425,34.084 C47.887,34.084 48.089,33.776 48.089,33.266 L48.089,32.528 L48.689,32.528 L48.689,33.233 C48.689,34.092 48.284,34.659 47.409,34.659 C46.542,34.659 46.137,34.092 46.137,33.233 L46.137,30.3 C46.137,29.442 46.542,28.874 47.409,28.874 C48.284,28.874 48.689,29.442 48.689,30.3" id="Fill-8"></path>
            <path d="M51.053,33.266 C51.053,33.784 51.272,34.084 51.726,34.084 C52.188,34.084 52.398,33.784 52.398,33.266 L52.398,30.268 C52.398,29.757 52.188,29.45 51.726,29.45 C51.272,29.45 51.053,29.757 51.053,30.268 L51.053,33.266 Z M50.429,30.3 C50.429,29.433 50.859,28.874 51.726,28.874 C52.601,28.874 53.03,29.433 53.03,30.3 L53.03,33.233 C53.03,34.092 52.601,34.659 51.726,34.659 C50.859,34.659 50.429,34.092 50.429,33.233 L50.429,30.3 Z" id="Fill-9"></path>
            <path d="M57.347,30.3 L57.347,30.811 L56.748,30.811 L56.748,30.268 C56.748,29.757 56.545,29.45 56.084,29.45 C55.629,29.45 55.419,29.757 55.419,30.268 L55.419,33.266 C55.419,33.776 55.629,34.084 56.084,34.084 C56.545,34.084 56.748,33.776 56.748,33.266 L56.748,32.528 L57.347,32.528 L57.347,33.233 C57.347,34.092 56.942,34.659 56.067,34.659 C55.2,34.659 54.795,34.092 54.795,33.233 L54.795,30.3 C54.795,29.442 55.2,28.874 56.067,28.874 C56.942,28.874 57.347,29.442 57.347,30.3" id="Fill-10"></path>
            <polyline id="Fill-11" points="59.955 34.603 59.955 29.506 58.91 29.506 58.91 28.931 61.624 28.931 61.624 29.506 60.579 29.506 60.579 34.603 59.955 34.603"></polyline>
            <path d="M63.681,32.917 L64.944,32.917 L64.304,29.644 L63.681,32.917 Z M63.6,33.46 L63.381,34.603 L62.797,34.603 L63.883,28.931 L64.799,28.931 L65.884,34.603 L65.252,34.603 L65.034,33.46 L63.6,33.46 Z" id="Fill-12"></path>
            <polygon id="Fill-13" points="67.592 34.603 68.224 34.603 68.224 28.931 67.592 28.931"></polygon>
            <polyline id="Fill-14" points="70.087 34.603 70.087 28.931 70.719 28.931 70.719 34.028 72.339 34.028 72.339 34.603 70.087 34.603"></polyline>
            <path d="M23.653,54.951 L23.653,57.088 L27.926,57.088 C28.513,57.088 28.994,56.607 28.994,56.02 C28.994,55.432 28.513,54.951 27.926,54.951 L23.653,54.951 Z M23.653,53.883 L27.926,53.883 C28.513,53.883 28.994,53.403 28.994,52.815 C28.994,52.228 28.513,51.747 27.926,51.747 L23.653,51.747 L23.653,53.883 Z M22.585,58.156 L22.585,50.679 L27.926,50.679 C29.047,50.679 30.062,51.63 30.062,52.815 C30.062,53.456 29.816,53.99 29.336,54.417 C29.816,54.844 30.062,55.379 30.062,56.02 C30.062,57.173 29.122,58.124 27.926,58.156 L22.585,58.156 Z" id="Fill-15"></path>
            <path d="M34.761,51.747 C34.174,51.747 33.693,52.228 33.693,52.815 L33.693,54.951 L39.034,54.951 L39.034,52.815 C39.034,52.228 38.553,51.747 37.965,51.747 L34.761,51.747 Z M40.102,58.156 L39.034,58.156 L39.034,56.02 L33.693,56.02 L33.693,58.156 L32.625,58.156 L32.625,52.815 C32.625,51.683 33.565,50.679 34.761,50.679 L37.965,50.679 C39.108,50.679 40.07,51.63 40.102,52.815 L40.102,58.156 Z" id="Fill-16"></path>
            <path d="M49.18,52.815 C49.18,52.228 48.699,51.747 48.112,51.747 L43.839,51.747 L43.839,54.951 L48.112,54.951 C48.699,54.951 49.18,54.471 49.18,53.883 L49.18,52.815 Z M49.49,58.156 L47.354,56.02 L43.839,56.02 L43.839,58.156 L42.772,58.156 L42.772,50.679 L48.112,50.679 C49.233,50.679 50.248,51.63 50.248,52.815 L50.248,53.883 C50.248,54.791 49.65,55.614 48.764,55.913 L50.248,57.397 L50.248,58.156 L49.49,58.156 Z" id="Fill-17"></path>
            <path d="M51.406,6.336 C51.436,6.524 51.39,6.71 51.277,6.863 C51.165,7.016 51,7.116 50.813,7.145 L46.809,7.763 L46.593,6.358 L50.597,5.742 C50.987,5.681 51.349,5.957 51.406,6.336 Z M46.552,8.56 L50.927,7.887 C51.312,7.827 51.651,7.622 51.883,7.307 C52.113,6.991 52.207,6.606 52.147,6.222 C52.029,5.443 51.284,4.877 50.483,5.001 L46.108,5.674 C45.904,5.706 45.764,5.896 45.795,6.1 L46.124,8.246 C46.139,8.345 46.192,8.433 46.272,8.492 C46.337,8.54 46.415,8.565 46.494,8.565 C46.514,8.565 46.532,8.564 46.552,8.56 Z" id="Fill-18"></path>
            <path d="M47.463,12.021 L47.247,10.617 L52.269,9.846 C52.66,9.785 53.019,10.06 53.077,10.439 C53.136,10.827 52.87,11.191 52.487,11.249 L47.463,12.021 Z M53.818,10.325 C53.695,9.535 52.959,8.98 52.154,9.105 L46.763,9.932 C46.558,9.965 46.418,10.156 46.449,10.361 L46.778,12.507 C46.794,12.604 46.847,12.693 46.928,12.752 C46.992,12.799 47.07,12.824 47.149,12.824 C47.168,12.824 47.188,12.823 47.206,12.82 L52.598,11.991 C53.392,11.869 53.939,11.122 53.818,10.325 Z" id="Fill-19"></path>
            <path d="M46.027,19.529 L38.798,29.051 C38.755,29.108 38.718,29.169 38.676,29.226 C38.632,29.248 38.591,29.278 38.557,29.318 C38.481,29.405 38.386,29.474 38.297,29.551 C37.793,29.983 37.103,30.244 36.365,30.244 C35.568,30.244 34.843,29.947 34.334,29.458 C34.276,29.403 34.216,29.35 34.164,29.29 C34.108,29.211 34.057,29.129 33.998,29.052 L26.77,19.529 L46.027,19.529 Z M43.407,13.405 L45.096,13.145 C45.193,13.131 45.282,13.076 45.341,12.996 C45.399,12.916 45.424,12.816 45.409,12.717 L44.422,6.313 C44.391,6.108 44.202,5.969 43.994,6 L42.308,6.258 L42.097,4.887 L43.784,4.628 C43.882,4.613 43.971,4.558 44.029,4.478 C44.088,4.398 44.112,4.299 44.098,4.199 L43.802,2.278 L45.173,2.066 L45.469,3.988 C45.484,4.086 45.538,4.174 45.618,4.234 C45.698,4.292 45.8,4.317 45.896,4.301 L49.074,3.812 C49.278,3.781 49.419,3.589 49.388,3.384 L49.092,1.463 L50.464,1.253 L50.781,3.31 C50.807,3.473 50.936,3.6 51.1,3.624 C52.337,3.797 53.332,4.779 53.521,6.011 C53.597,6.5 53.54,7.007 53.356,7.476 C53.283,7.661 53.368,7.871 53.55,7.954 C54.431,8.356 55.044,9.164 55.189,10.113 C55.305,10.865 55.121,11.617 54.671,12.232 C54.221,12.847 53.559,13.248 52.807,13.365 L52.708,13.381 C52.504,13.412 52.365,13.604 52.396,13.807 L52.69,15.726 L51.319,15.937 L51.023,14.018 C51.009,13.92 50.955,13.83 50.875,13.772 C50.795,13.713 50.694,13.689 50.596,13.703 L49.607,13.856 L43.477,13.856 L43.407,13.405 Z M23.034,14.606 L49.764,14.606 L46.562,18.823 C46.511,18.797 46.454,18.778 46.393,18.778 L26.201,18.778 L23.034,14.606 Z M30.438,44.204 L34.286,43.033 C35.14,42.773 35.712,42 35.712,41.108 L35.712,34.145 C35.712,32.967 35.456,31.799 34.98,30.726 C35.413,30.889 35.877,30.995 36.365,30.995 C36.882,30.995 37.373,30.891 37.821,30.712 C37.342,31.788 37.084,32.962 37.084,34.145 L37.084,41.108 C37.084,42 37.657,42.773 38.51,43.033 L42.358,44.204 L30.438,44.204 Z M44.987,44.22 L38.729,42.316 C38.193,42.153 37.834,41.668 37.834,41.108 L37.834,34.145 C37.834,32.48 38.389,30.832 39.396,29.504 L50.414,14.989 L50.635,16.423 C50.65,16.52 50.704,16.609 50.784,16.668 C50.864,16.726 50.966,16.751 51.062,16.736 L53.175,16.411 C53.379,16.379 53.52,16.188 53.488,15.983 L53.192,14.053 C54.029,13.859 54.762,13.377 55.275,12.675 C55.844,11.899 56.077,10.949 55.931,10 C55.764,8.911 55.112,7.971 54.164,7.427 C54.307,6.928 54.341,6.405 54.262,5.897 C54.038,4.433 52.914,3.25 51.481,2.931 L51.147,0.767 C51.116,0.564 50.928,0.424 50.72,0.454 L48.607,0.779 C48.509,0.794 48.421,0.848 48.362,0.928 C48.303,1.008 48.278,1.109 48.294,1.207 L48.589,3.128 L46.153,3.503 L45.857,1.58 C45.842,1.483 45.788,1.394 45.708,1.336 C45.628,1.277 45.527,1.252 45.43,1.268 L43.316,1.593 C43.112,1.625 42.972,1.817 43.003,2.021 L43.299,3.943 L41.611,4.202 C41.514,4.217 41.425,4.271 41.366,4.35 C41.308,4.431 41.283,4.531 41.298,4.63 L41.623,6.743 C41.655,6.947 41.845,7.088 42.051,7.056 L43.737,6.798 L44.61,12.461 L42.923,12.721 C42.718,12.753 42.577,12.945 42.609,13.149 L42.718,13.856 L22.279,13.856 C22.137,13.856 22.007,13.937 21.943,14.065 C21.88,14.193 21.895,14.344 21.981,14.458 L33.4,29.505 C33.42,29.531 33.434,29.561 33.453,29.587 C33.466,29.617 33.476,29.648 33.497,29.675 C33.507,29.688 33.521,29.697 33.53,29.709 C34.446,31 34.962,32.56 34.962,34.145 L34.962,41.108 C34.962,41.668 34.603,42.153 34.067,42.316 L27.81,44.22 C27.632,44.275 27.521,44.451 27.548,44.635 C27.575,44.819 27.733,44.954 27.919,44.954 L44.878,44.954 C45.063,44.954 45.222,44.819 45.249,44.635 C45.276,44.451 45.165,44.275 44.987,44.22 Z" id="Fill-20"></path>
            <path d="M36.502,23.008 C36.508,23.008 36.514,23.007 36.52,23.007 C36.529,23.045 36.525,23.084 36.532,23.122 C36.539,23.173 36.546,23.223 36.547,23.272 C36.55,23.35 36.542,23.425 36.528,23.5 C36.521,23.545 36.516,23.591 36.503,23.633 C36.479,23.711 36.442,23.779 36.402,23.846 C36.383,23.878 36.37,23.913 36.347,23.943 C36.276,24.033 36.192,24.113 36.09,24.168 C35.991,24.22 35.884,24.246 35.773,24.257 C35.741,24.26 35.708,24.253 35.675,24.252 C35.596,24.251 35.517,24.244 35.438,24.223 C35.402,24.214 35.369,24.198 35.335,24.186 C35.259,24.157 35.188,24.122 35.117,24.075 C35.083,24.053 35.051,24.028 35.02,24.002 C34.989,23.978 34.956,23.962 34.929,23.934 C34.932,23.93 34.936,23.927 34.938,23.922 C35.115,23.619 35.359,23.377 35.657,23.215 C35.912,23.079 36.225,23.017 36.502,23.008 Z M37.281,23.613 C37.305,23.468 37.315,23.319 37.304,23.166 C37.304,23.162 37.305,23.159 37.305,23.156 C37.835,23.362 38.294,23.77 38.587,24.315 C38.889,24.876 38.978,25.506 38.838,26.089 C38.701,26.655 38.363,27.109 37.885,27.365 C37.616,27.51 37.321,27.584 37.01,27.584 C36.192,27.584 35.386,27.067 34.955,26.266 C34.689,25.772 34.591,25.212 34.67,24.691 C34.696,24.709 34.727,24.717 34.754,24.734 C34.835,24.784 34.918,24.825 35.005,24.862 C35.055,24.883 35.104,24.905 35.154,24.921 C35.257,24.954 35.36,24.974 35.467,24.989 C35.508,24.995 35.55,25.002 35.592,25.005 C35.624,25.007 35.655,25.018 35.688,25.018 C35.777,25.018 35.863,25 35.949,24.986 C35.976,24.982 36.002,24.982 36.028,24.975 C36.172,24.945 36.312,24.899 36.444,24.828 C36.579,24.757 36.693,24.661 36.799,24.56 C36.823,24.535 36.848,24.511 36.871,24.486 C36.968,24.378 37.054,24.263 37.119,24.134 C37.123,24.128 37.125,24.119 37.128,24.113 C37.188,23.989 37.23,23.856 37.261,23.718 C37.269,23.682 37.276,23.649 37.281,23.613 Z M37.01,28.334 C37.446,28.334 37.86,28.23 38.24,28.027 C38.909,27.668 39.38,27.041 39.567,26.263 C39.75,25.502 39.637,24.683 39.248,23.96 C38.738,23.014 37.835,22.385 36.832,22.274 C36.293,22.215 35.76,22.308 35.302,22.555 C34.785,22.833 34.383,23.277 34.14,23.839 C34.139,23.839 34.139,23.839 34.139,23.839 C33.764,24.704 33.822,25.744 34.295,26.622 C34.862,27.678 35.903,28.333 37.01,28.334 Z" id="Fill-21"></path>
            <path d="M26.015,36.758 L0.806,36.758 C0.599,36.758 0.431,36.926 0.431,37.133 C0.431,37.341 0.599,37.509 0.806,37.509 L26.015,37.509 C26.222,37.509 26.39,37.341 26.39,37.133 C26.39,36.926 26.222,36.758 26.015,36.758" id="Fill-22"></path>
            <path d="M71.781,36.758 L46.572,36.758 C46.365,36.758 46.197,36.926 46.197,37.133 C46.197,37.341 46.365,37.509 46.572,37.509 L71.781,37.509 C71.988,37.509 72.156,37.341 72.156,37.133 C72.156,36.926 71.988,36.758 71.781,36.758" id="Fill-23"></path>
            <path d="M18.423,49.918 L11.772,46.596 C11.588,46.503 11.362,46.578 11.27,46.764 C11.177,46.949 11.252,47.175 11.438,47.266 L18.088,50.589 C18.142,50.616 18.199,50.629 18.255,50.629 C18.393,50.629 18.525,50.553 18.591,50.421 C18.684,50.236 18.608,50.011 18.423,49.918" id="Fill-24"></path>
            <path d="M18.088,57.38 L11.438,60.702 C11.252,60.795 11.177,61.02 11.27,61.204 C11.335,61.337 11.468,61.412 11.606,61.412 C11.662,61.412 11.719,61.4 11.772,61.372 L18.423,58.051 C18.608,57.958 18.684,57.733 18.591,57.548 C18.499,57.363 18.273,57.286 18.088,57.38" id="Fill-25"></path>
            <path d="M16.071,53.985 C16.071,53.778 15.903,53.61 15.696,53.61 L7.515,53.61 C7.308,53.61 7.14,53.778 7.14,53.985 C7.14,54.192 7.308,54.36 7.515,54.36 L15.696,54.36 C15.903,54.36 16.071,54.192 16.071,53.985" id="Fill-26"></path>
            <path d="M60.892,60.703 L54.241,57.381 C54.057,57.287 53.831,57.364 53.738,57.548 C53.646,57.734 53.721,57.96 53.906,58.052 L60.557,61.374 C60.61,61.4 60.668,61.412 60.724,61.412 C60.861,61.412 60.994,61.337 61.06,61.206 C61.152,61.02 61.077,60.795 60.892,60.703" id="Fill-27"></path>
            <path d="M54.074,50.629 C54.131,50.629 54.187,50.616 54.241,50.59 L60.892,47.268 C61.077,47.175 61.152,46.949 61.06,46.764 C60.968,46.579 60.741,46.504 60.557,46.596 L53.906,49.919 C53.721,50.011 53.646,50.236 53.738,50.422 C53.804,50.553 53.937,50.629 54.074,50.629" id="Fill-28"></path>
            <path d="M64.815,53.61 L56.634,53.61 C56.427,53.61 56.259,53.778 56.259,53.985 C56.259,54.192 56.427,54.36 56.634,54.36 L64.815,54.36 C65.023,54.36 65.19,54.192 65.19,53.985 C65.19,53.778 65.023,53.61 64.815,53.61" id="Fill-29"></path>
        </g>
    </g>
</svg>
